X:2
T:Killiecrankie
T:Harmony 1
C:arr Adam Blaine
R:March
M:4/4
L:1/8
K:D
[| {g}f>g |{ag}a3 A {GAG}A2 {g}B{d}c | {Gdc}d2 {e}G2 {gGd}G3 d  | {g}d2 A2 {g}d2 e2 | {g}d4 {g}dc ae | 
(f2 (f2) f2) fe | {gf}g2 d2 {g}B2 d2 | {g}d4 {ag}(a2 a2) | {g}a2 g2 {a}f2 {g}fe ||
d2 A2 {g}d2 af | {g}d4 {G}d2 g2 |  {a}d2 A2 {g}d2 e2 | {g}d4 {g}dc ae |
{g}d2 c2 {g}B2 af | {g}d2 B2 {g}d4 |  {g}d4 {ag}(a2 a2) | {g}a2 g2 {a}f4 |]

